img/portal-rocket.svg

<?xml version="1.0" encoding="UTF-8"?>
<svg width="110px" height="121px" viewBox="0 0 110 121" version="1.1" xmlns="http://www.w3.org/2000/svg" xmlns:xlink="http://www.w3.org/1999/xlink">
    <!-- Generator: Sketch 39.1 (31720) - http://www.bohemiancoding.com/sketch -->
    <title>Page 1</title>
    <desc>Created with Sketch.</desc>
    <defs></defs>
    <g id="Visual-1" stroke="none" stroke-width="1" fill="none" fill-rule="evenodd">
        <g id="02_Case-Study-Portal" transform="translate(-665.000000, -8196.000000)">
            <g id="Group-20" transform="translate(54.000000, 3922.000000)">
                <g id="2" transform="translate(81.000000, 2509.000000)">
                    <g id="Page-1" transform="translate(530.000000, 1765.000000)">
                        <path d="M92.4774,24.7856 C92.4774,37.6456 82.0534,48.0696 69.1934,48.0696 C56.3334,48.0696 45.9094,37.6456 45.9094,24.7856 C45.9094,11.9256 56.3334,1.5016 69.1934,1.5016 C82.0534,1.5016 92.4774,11.9256 92.4774,24.7856 Z" id="Fill-1" fill="#CEDAF2"></path>
                        <path d="M81.3486,24.7856 C81.3486,31.4996 75.9066,36.9416 69.1926,36.9416 C62.4806,36.9416 57.0366,31.4996 57.0366,24.7856 C57.0366,18.0716 62.4806,12.6296 69.1926,12.6296 C75.9066,12.6296 81.3486,18.0716 81.3486,24.7856" id="Fill-3" fill="#FFFFFF"></path>
                        <path d="M69.194,24.4284 C68.996,24.4284 68.834,24.5884 68.834,24.7864 C68.834,25.1804 69.552,25.1804 69.552,24.7864 C69.552,24.5884 69.392,24.4284 69.194,24.4284 M69.194,27.4284 C67.736,27.4284 66.552,26.2424 66.552,24.7864 C66.552,23.3284 67.736,22.1424 69.194,22.1424 C70.65,22.1424 71.834,23.3284 71.834,24.7864 C71.834,26.2424 70.65,27.4284 69.194,27.4284" id="Fill-5" fill="#2866DC"></path>
                        <path d="M78.2898,47.8474 L77.1878,45.0574 C85.5658,41.7494 90.9778,33.7934 90.9778,24.7854 C90.9778,13.4494 82.1338,3.9074 70.8438,3.0634 C68.1618,2.8634 65.4138,3.1574 62.8438,3.9394 L61.9698,1.0714 C64.8978,0.1794 68.0278,-0.1606 71.0698,0.0714 C83.9158,1.0314 93.9778,11.8894 93.9778,24.7854 C93.9778,35.0334 87.8198,44.0854 78.2898,47.8474" id="Fill-7" fill="#2866DC"></path>
                        <path d="M53.6784,9.4928 L51.5424,7.3868 C53.4544,5.4488 55.6544,3.8448 58.0844,2.6248 L59.4324,5.3048 C57.2964,6.3788 55.3604,7.7888 53.6784,9.4928" id="Fill-9" fill="#2866DC"></path>
                        <path d="M47.409,24.7858 L44.409,24.7858 C44.409,19.8478 45.857,15.0798 48.597,10.9938 L51.089,12.6678 C48.681,16.2558 47.409,20.4458 47.409,24.7858" id="Fill-11" fill="#2866DC"></path>
                        <polygon id="Fill-13" fill="#2866DC" points="67.694 7.548 70.694 7.548 70.694 3.502 67.694 3.502"></polygon>
                        <polygon id="Fill-15" fill="#2866DC" points="79.1256 10.6178 76.5276 9.1138 78.5556 5.6118 81.1536 7.1158"></polygon>
                        <polygon id="Fill-16" fill="#2866DC" points="84.8874 17.4978 83.3914 14.8958 86.8994 12.8798 88.3954 15.4818"></polygon>
                        <polygon id="Fill-17" fill="#2866DC" points="90.4734 26.3512 86.4274 26.3392 86.4334 23.3392 90.4814 23.3512"></polygon>
                        <polygon id="Fill-18" fill="#2866DC" points="86.8268 36.7996 83.3308 34.7616 84.8428 32.1716 88.3388 34.2076"></polygon>
                        <polygon id="Fill-19" fill="#2866DC" points="78.4382 44.0164 76.4322 40.5024 79.0382 39.0144 81.0442 42.5304"></polygon>
                        <polygon id="Fill-20" fill="#2866DC" points="51.9422 26.1258 47.8962 26.0878 47.9222 23.0878 51.9702 23.1258"></polygon>
                        <polygon id="Fill-21" fill="#2866DC" points="53.5906 17.3044 50.1086 15.2444 51.6346 12.6624 55.1186 14.7224"></polygon>
                        <polygon id="Fill-22" fill="#2866DC" points="59.4382 10.4958 57.4542 6.9678 60.0662 5.4978 62.0522 9.0258"></polygon>
                        <polygon id="Fill-23" fill="#2866DC" points="67.6932 24.8516 68.3132 10.5336 70.0732 10.5336 70.6932 24.8516"></polygon>
                        <polygon id="Fill-24" fill="#2866DC" points="69.1544 23.352 81.7744 23.646 81.8204 25.408 69.2324 26.35"></polygon>
                        <path d="M32.5966,94.57 L45.5506,94.57 L45.5506,66.356 L40.7706,72.822 C39.3946,74.684 37.7786,76.338 36.1166,77.95 C33.8926,80.108 32.5966,83.098 32.5966,86.27 L32.5966,94.57 Z" id="Fill-25" fill="#CEDAF2"></path>
                        <path d="M77.949,94.57 L64.995,94.57 L64.995,66.356 L69.775,72.822 C71.151,74.684 72.767,76.338 74.429,77.95 C76.653,80.108 77.949,83.098 77.949,86.27 L77.949,94.57 Z" id="Fill-26" fill="#CEDAF2"></path>
                        <path d="M66.4942,93.0694 L76.4502,93.0694 L76.4502,86.2694 C76.4502,83.5554 75.3322,80.9154 73.3822,79.0274 C71.7522,77.4454 70.0402,75.7054 68.5702,73.7154 L66.4942,70.9094 L66.4942,93.0694 Z M79.4502,96.0694 L63.4942,96.0694 L63.4942,61.8034 L70.9822,71.9314 C72.3242,73.7494 73.9342,75.3794 75.4722,76.8734 C78.0002,79.3234 79.4502,82.7474 79.4502,86.2694 L79.4502,96.0694 Z" id="Fill-27" fill="#2866DC"></path>
                        <path d="M34.0958,93.0694 L44.0498,93.0694 L44.0498,70.9094 L41.9758,73.7154 C40.5038,75.7054 38.7938,77.4454 37.1618,79.0274 C35.2138,80.9154 34.0958,83.5554 34.0958,86.2694 L34.0958,93.0694 Z M47.0498,96.0694 L31.0958,96.0694 L31.0958,86.2694 C31.0958,82.7474 32.5458,79.3234 35.0718,76.8734 C36.6118,75.3794 38.2218,73.7494 39.5638,71.9314 L47.0498,61.8034 L47.0498,96.0694 Z" id="Fill-28" fill="#2866DC"></path>
                        <path d="M66.1026,94.57 L44.7746,94.57 L44.7746,50.374 C44.7746,45.216 47.1646,40.35 51.2446,37.198 L53.1506,35.728 C54.4986,34.686 56.3786,34.686 57.7286,35.728 L59.8046,37.332 C63.7766,40.4 66.1026,45.136 66.1026,50.154 L66.1026,94.57 Z" id="Fill-29" fill="#FFFFFF"></path>
                        <path d="M55.9322,37.1982 L57.7822,35.7682 L57.7282,35.7262 C56.3802,34.6862 54.4982,34.6862 53.1502,35.7262 L51.2462,37.1982 C47.1642,40.3502 44.7742,45.2162 44.7742,50.3742 L44.7742,94.5702 L49.4622,94.5702 L49.4622,50.3742 C49.4622,45.2162 51.8522,40.3502 55.9322,37.1982" id="Fill-30" fill="#CEDAF2"></path>
                        <path d="M67.6016,96.0694 L43.2756,96.0694 L43.2756,50.3734 C43.2756,44.7914 45.9116,39.4234 50.3296,36.0114 L52.2336,34.5394 C54.1176,33.0834 56.7556,33.0834 58.6456,34.5394 L60.7216,36.1434 L58.8896,38.5194 L56.8116,36.9154 C55.9976,36.2854 54.8716,36.2914 54.0676,36.9134 L52.1616,38.3854 C48.4756,41.2314 46.2756,45.7134 46.2756,50.3734 L46.2756,93.0694 L64.6016,93.0694 L64.6016,50.1554 C64.6016,47.9294 64.0836,45.6954 63.1076,43.6954 L65.8036,42.3774 C66.9796,44.7834 67.6016,47.4734 67.6016,50.1554 L67.6016,96.0694 Z" id="Fill-31" fill="#2866DC"></path>
                        <path d="M61.834,41.5674 C61.568,41.1954 61.286,40.8394 60.984,40.4934 L63.238,38.5174 C63.606,38.9334 63.948,39.3674 64.272,39.8174 L61.834,41.5674 Z" id="Fill-32" fill="#2866DC"></path>
                        <path d="M59.1878,55.6246 C59.1878,57.6946 57.5098,59.3726 55.4398,59.3726 C53.3678,59.3726 51.6898,57.6946 51.6898,55.6246 C51.6898,53.5546 53.3678,51.8766 55.4398,51.8766 C57.5098,51.8766 59.1878,53.5546 59.1878,55.6246" id="Fill-33" fill="#9ECFEF"></path>
                        <path d="M59.1878,68.666 C59.1878,70.736 57.5098,72.414 55.4398,72.414 C53.3678,72.414 51.6898,70.736 51.6898,68.666 C51.6898,66.596 53.3678,64.916 55.4398,64.916 C57.5098,64.916 59.1878,66.596 59.1878,68.666" id="Fill-34" fill="#9ECFEF"></path>
                        <path d="M59.1878,81.7074 C59.1878,83.7774 57.5098,85.4554 55.4398,85.4554 C53.3678,85.4554 51.6898,83.7774 51.6898,81.7074 C51.6898,79.6374 53.3678,77.9594 55.4398,77.9594 C57.5098,77.9594 59.1878,79.6374 59.1878,81.7074" id="Fill-35" fill="#9ECFEF"></path>
                        <path d="M55.4396,53.376 C54.1996,53.376 53.1896,54.384 53.1896,55.624 C53.1896,56.864 54.1996,57.874 55.4396,57.874 C56.6796,57.874 57.6876,56.864 57.6876,55.624 C57.6876,54.384 56.6796,53.376 55.4396,53.376 M55.4396,60.874 C52.5456,60.874 50.1896,58.518 50.1896,55.624 C50.1896,52.73 52.5456,50.376 55.4396,50.376 C58.3336,50.376 60.6876,52.73 60.6876,55.624 C60.6876,58.518 58.3336,60.874 55.4396,60.874" id="Fill-36" fill="#2866DC"></path>
                        <path d="M55.4396,66.417 C54.1996,66.417 53.1896,67.425 53.1896,68.665 C53.1896,69.905 54.1996,70.915 55.4396,70.915 C56.6796,70.915 57.6876,69.905 57.6876,68.665 C57.6876,67.425 56.6796,66.417 55.4396,66.417 M55.4396,73.915 C52.5456,73.915 50.1896,71.559 50.1896,68.665 C50.1896,65.771 52.5456,63.417 55.4396,63.417 C58.3336,63.417 60.6876,65.771 60.6876,68.665 C60.6876,71.559 58.3336,73.915 55.4396,73.915" id="Fill-37" fill="#2866DC"></path>
                        <path d="M55.4396,79.4582 C54.1996,79.4582 53.1896,80.4682 53.1896,81.7082 C53.1896,82.9482 54.1996,83.9562 55.4396,83.9562 C56.6796,83.9562 57.6876,82.9482 57.6876,81.7082 C57.6876,80.4682 56.6796,79.4582 55.4396,79.4582 M55.4396,86.9562 C52.5456,86.9562 50.1896,84.6022 50.1896,81.7082 C50.1896,78.8142 52.5456,76.4582 55.4396,76.4582 C58.3336,76.4582 60.6876,78.8142 60.6876,81.7082 C60.6876,84.6022 58.3336,86.9562 55.4396,86.9562" id="Fill-38" fill="#2866DC"></path>
                        <path d="M96.863,118.2158 C96.863,115.5898 95.579,113.2798 93.623,111.8238 C94.597,110.5258 95.195,108.9298 95.195,107.1818 C95.195,102.8898 91.715,99.4098 87.423,99.4098 C83.129,99.4098 79.649,102.8898 79.649,107.1818 C79.649,107.3278 79.685,107.4638 79.693,107.6058 C77.919,107.8098 76.409,108.8278 75.541,110.2938 C74.367,109.4258 72.931,108.8978 71.359,108.8978 C69.261,108.8978 67.395,109.8298 66.101,111.2818 C65.125,110.4458 63.875,109.9238 62.489,109.9238 C62.199,109.9238 61.921,109.9658 61.643,110.0078 C61.689,109.7398 61.725,109.4658 61.725,109.1818 C61.725,106.4758 59.531,104.2818 56.825,104.2818 C54.117,104.2818 51.923,106.4758 51.923,109.1818 C51.923,109.4218 51.961,109.6498 51.995,109.8798 C51.287,109.5918 50.515,109.4258 49.703,109.4258 C47.373,109.4258 45.373,110.7518 44.353,112.6758 C43.665,112.0418 42.757,111.6458 41.749,111.6458 C40.537,111.6458 39.469,112.2158 38.763,113.0898 C38.291,110.4838 36.023,108.5058 33.281,108.5058 C33.001,108.5058 32.731,108.5478 32.461,108.5878 C32.733,107.7798 32.915,106.9298 32.915,106.0278 C32.915,101.5838 29.311,97.9798 24.865,97.9798 C20.419,97.9798 16.817,101.5838 16.817,106.0278 C16.817,107.7218 17.345,109.2898 18.239,110.5878 C14.931,111.5638 12.501,114.5898 12.501,118.2158 L96.863,118.2158 Z" id="Fill-39" fill="#FFFFFF"></path>
                        <path d="M98.3634,118.216 L95.3634,118.216 C95.3634,116.166 94.4034,114.274 92.7274,113.026 L91.5194,112.126 L92.4234,110.924 C93.2554,109.816 93.6954,108.522 93.6954,107.182 C93.6954,103.724 90.8814,100.91 87.4214,100.91 C83.9634,100.91 81.1494,103.724 81.1494,107.182 L81.1894,107.524 L81.2654,108.936 L79.8614,109.096 C78.5874,109.244 77.4854,109.958 76.8314,111.06 L75.9854,112.488 L74.6514,111.502 C72.3574,109.804 69.1054,110.166 67.2214,112.28 L66.2434,113.378 L65.1274,112.42 C64.5934,111.966 63.7054,111.424 62.4894,111.424 C62.2774,111.424 62.0734,111.46 61.8734,111.492 L59.8234,111.81 L60.1614,109.762 C60.1954,109.574 60.2254,109.382 60.2254,109.182 C60.2254,107.308 58.6994,105.782 56.8234,105.782 C54.9494,105.782 53.4234,107.308 53.4234,109.182 C53.4234,109.324 53.4494,109.46 53.4694,109.594 L53.8474,112.192 L51.4274,111.268 C49.2554,110.384 46.7594,111.338 45.6794,113.378 L44.7674,115.094 L43.3374,113.778 C42.3654,112.882 40.7594,113 39.9274,114.034 L37.8694,116.584 L37.2854,113.358 C36.9034,111.234 34.8194,109.756 32.7414,110.062 L30.3234,110.416 L31.0394,108.108 C31.2914,107.358 31.4134,106.678 31.4134,106.028 C31.4134,102.416 28.4774,99.48 24.8654,99.48 C21.2534,99.48 18.3174,102.416 18.3174,106.028 C18.3174,107.354 18.7174,108.636 19.4754,109.738 L20.6474,111.44 L18.6614,112.026 C15.8734,112.848 13.9994,115.338 13.9994,118.216 L10.9994,118.216 C10.9994,114.614 12.9914,111.434 16.1094,109.832 C15.5874,108.636 15.3174,107.346 15.3174,106.028 C15.3174,100.762 19.5994,96.48 24.8654,96.48 C30.1314,96.48 34.4134,100.762 34.4134,106.028 C34.4134,106.378 34.3934,106.73 34.3474,107.084 C36.5374,107.416 38.4214,108.758 39.4714,110.662 C40.8434,110.006 42.5354,109.986 43.9374,110.622 C45.5374,108.718 48.0254,107.686 50.5394,107.972 C51.1054,105.018 53.7094,102.782 56.8234,102.782 C60.1094,102.782 62.8234,105.268 63.1834,108.458 C64.1534,108.558 65.0954,108.862 65.9534,109.35 C68.5014,107.252 72.2254,106.82 75.1634,108.306 C75.9874,107.42 77.0234,106.764 78.1814,106.4 C78.5794,101.652 82.5734,97.91 87.4214,97.91 C92.5354,97.91 96.6954,102.07 96.6954,107.182 C96.6954,108.712 96.3154,110.194 95.5854,111.538 C97.3654,113.31 98.3634,115.676 98.3634,118.216" id="Fill-40" fill="#2866DC"></path>
                        <rect id="Rectangle-6" fill="#2866DC" x="0" y="118" width="110" height="3"></rect>
                    </g>
                </g>
            </g>
        </g>
    </g>
</svg>

<svg width="110" height="121" viewBox="0 0 110 121" xmlns="http://www.w3.org/2000/svg"><title>Page 1</title><g fill="none" fill-rule="evenodd"><path d="M92.477 24.786c0 12.86-10.424 23.284-23.284 23.284S45.91 37.646 45.91 24.786 56.333 1.502 69.193 1.502s23.284 10.424 23.284 23.284z" fill="#CEDAF2"/><path d="M81.349 24.786c0 6.714-5.442 12.156-12.156 12.156-6.712 0-12.156-5.442-12.156-12.156S62.48 12.63 69.193 12.63c6.714 0 12.156 5.442 12.156 12.156" fill="#FFF"/><path d="M69.194 24.428a.36.36 0 0 0-.36.358c0 .394.718.394.718 0a.358.358 0 0 0-.358-.358m0 3a2.645 2.645 0 0 1-2.642-2.642 2.645 2.645 0 0 1 2.642-2.644 2.645 2.645 0 0 1 2.64 2.644 2.644 2.644 0 0 1-2.64 2.642" fill="#2866DC"/><path d="M78.29 47.847l-1.102-2.79c8.378-3.308 13.79-11.264 13.79-20.272 0-11.336-8.844-20.878-20.134-21.722-2.682-.2-5.43.094-8 .876l-.874-2.868a24.94 24.94 0 0 1 9.1-1c12.846.96 22.908 11.818 22.908 24.714 0 10.248-6.158 19.3-15.688 23.062M53.678 9.493l-2.136-2.106a24.817 24.817 0 0 1 6.542-4.762l1.348 2.68a21.887 21.887 0 0 0-5.754 4.188m-6.269 15.293h-3c0-4.938 1.448-9.706 4.188-13.792l2.492 1.674a21.666 21.666 0 0 0-3.68 12.118" fill="#2866DC"/><path fill="#2866DC" d="M67.694 7.548h3V3.502h-3zm11.432 3.07l-2.598-1.504 2.028-3.502 2.598 1.504zm5.761 6.88l-1.496-2.602L86.9 12.88l1.496 2.602zm5.586 8.853l-4.046-.012.006-3 4.048.012zM86.827 36.8l-3.496-2.038 1.512-2.59 3.496 2.036zm-8.389 7.216l-2.006-3.514 2.606-1.488 2.006 3.516zm-26.496-17.89l-4.046-.038.026-3 4.048.038zm1.648-8.822l-3.481-2.06 1.526-2.582 3.484 2.06zm5.848-6.808l-1.984-3.528 2.612-1.47 1.986 3.528zm8.255 14.356l.62-14.318h1.76l.62 14.318z"/><path fill="#2866DC" d="M69.154 23.352l12.62.294.046 1.762-12.588.942z"/><path d="M32.597 94.57H45.55V66.356l-4.78 6.466c-1.376 1.862-2.992 3.516-4.654 5.128a11.592 11.592 0 0 0-3.52 8.32v8.3zm45.352 0H64.995V66.356l4.78 6.466c1.376 1.862 2.992 3.516 4.654 5.128a11.592 11.592 0 0 1 3.52 8.32v8.3z" fill="#CEDAF2"/><path d="M66.494 93.07h9.956v-6.8c0-2.715-1.118-5.355-3.068-7.243-1.63-1.582-3.342-3.322-4.812-5.312l-2.076-2.806v22.16zm12.956 3H63.494V61.802l7.488 10.128c1.342 1.818 2.952 3.448 4.49 4.942a13.153 13.153 0 0 1 3.978 9.396v9.8zm-45.354-3h9.954V70.91l-2.074 2.805c-1.472 1.99-3.182 3.73-4.814 5.312a10.14 10.14 0 0 0-3.066 7.242v6.8zm12.954 3H31.096v-9.8a13.16 13.16 0 0 1 3.976-9.397c1.54-1.494 3.15-3.124 4.492-4.942l7.486-10.128V96.07z" fill="#2866DC"/><path d="M66.103 94.57H44.775V50.374a16.65 16.65 0 0 1 6.47-13.176l1.906-1.47a3.743 3.743 0 0 1 4.578 0l2.076 1.604a16.203 16.203 0 0 1 6.298 12.822V94.57z" fill="#FFF"/><path d="M55.932 37.198l1.85-1.43-.054-.042a3.749 3.749 0 0 0-4.578 0l-1.904 1.472a16.646 16.646 0 0 0-6.472 13.176V94.57h4.688V50.374a16.65 16.65 0 0 1 6.47-13.176" fill="#CEDAF2"/><path d="M67.602 96.07H43.276V50.372c0-5.582 2.636-10.95 7.054-14.362l1.904-1.472a5.252 5.252 0 0 1 6.412 0l2.076 1.604-1.832 2.376-2.078-1.604a2.24 2.24 0 0 0-2.744-.002l-1.906 1.472c-3.686 2.846-5.886 7.328-5.886 11.988V93.07h18.326V50.155c0-2.226-.518-4.46-1.494-6.46l2.696-1.318a17.813 17.813 0 0 1 1.798 7.778V96.07z" fill="#2866DC"/><path d="M61.834 41.567a14.104 14.104 0 0 0-.85-1.074l2.254-1.976c.368.416.71.85 1.034 1.3l-2.438 1.75z" fill="#2866DC"/><path d="M59.188 55.625a3.748 3.748 0 1 1-7.5 0 3.748 3.748 0 0 1 7.5 0m0 13.041a3.748 3.748 0 1 1-7.5 0 3.748 3.748 0 0 1 7.5 0m0 13.041a3.748 3.748 0 1 1-7.5 0 3.748 3.748 0 0 1 7.5 0" fill="#9ECFEF"/><path d="M55.44 53.376a2.252 2.252 0 0 0-2.25 2.248c0 1.24 1.01 2.25 2.25 2.25s2.248-1.01 2.248-2.25a2.25 2.25 0 0 0-2.248-2.248m0 7.498a5.257 5.257 0 0 1-5.25-5.25 5.255 5.255 0 0 1 5.25-5.248 5.254 5.254 0 0 1 5.248 5.248 5.255 5.255 0 0 1-5.248 5.25m0 5.543a2.252 2.252 0 0 0-2.25 2.248c0 1.24 1.01 2.25 2.25 2.25s2.248-1.01 2.248-2.25a2.25 2.25 0 0 0-2.248-2.248m0 7.498a5.257 5.257 0 0 1-5.25-5.25 5.255 5.255 0 0 1 5.25-5.248 5.254 5.254 0 0 1 5.248 5.248 5.255 5.255 0 0 1-5.248 5.25m0 5.543c-1.24 0-2.25 1.01-2.25 2.25s1.01 2.248 2.25 2.248a2.25 2.25 0 0 0 0-4.498m0 7.498a5.255 5.255 0 0 1-5.25-5.248 5.257 5.257 0 0 1 5.25-5.25 5.255 5.255 0 0 1 5.248 5.25 5.254 5.254 0 0 1-5.248 5.248" fill="#2866DC"/><path d="M96.863 118.216c0-2.626-1.284-4.936-3.24-6.392.974-1.298 1.572-2.894 1.572-4.642a7.773 7.773 0 1 0-15.546 0c0 .146.036.282.044.424a5.546 5.546 0 0 0-4.152 2.688 7.001 7.001 0 0 0-4.182-1.396c-2.098 0-3.964.932-5.258 2.384-.976-.836-2.226-1.358-3.612-1.358-.29 0-.568.042-.846.084.046-.268.082-.542.082-.826a4.9 4.9 0 1 0-9.802 0c0 .24.038.468.072.698a6.067 6.067 0 0 0-2.292-.454c-2.33 0-4.33 1.326-5.35 3.25a3.827 3.827 0 0 0-2.604-1.03 3.83 3.83 0 0 0-2.986 1.444 5.574 5.574 0 0 0-5.482-4.584c-.28 0-.55.042-.82.082.272-.808.454-1.658.454-2.56a8.05 8.05 0 0 0-16.098 0 8.01 8.01 0 0 0 1.422 4.56c-3.308.976-5.738 4.002-5.738 7.628h84.362z" fill="#FFF"/><path d="M98.363 118.216h-3c0-2.05-.96-3.942-2.636-5.19l-1.208-.9.904-1.202c.832-1.108 1.272-2.402 1.272-3.742a6.28 6.28 0 0 0-6.274-6.272 6.28 6.28 0 0 0-6.272 6.272l.04.342.076 1.412-1.404.16a4.033 4.033 0 0 0-3.03 1.964l-.846 1.428-1.334-.986c-2.294-1.698-5.546-1.336-7.43.778l-.978 1.098-1.116-.958c-.534-.454-1.422-.996-2.638-.996-.212 0-.416.036-.616.068l-2.05.318.338-2.048c.034-.188.064-.38.064-.58 0-1.874-1.526-3.4-3.402-3.4a3.405 3.405 0 0 0-3.4 3.4c0 .142.026.278.046.412l.378 2.598-2.42-.924c-2.172-.884-4.668.07-5.748 2.11l-.912 1.716-1.43-1.316c-.972-.896-2.578-.778-3.41.256l-2.058 2.55-.584-3.226c-.382-2.124-2.466-3.602-4.544-3.296l-2.418.354.716-2.308c.252-.75.374-1.43.374-2.08a6.554 6.554 0 0 0-6.548-6.548 6.554 6.554 0 0 0-6.548 6.548c0 1.326.4 2.608 1.158 3.71l1.172 1.702-1.986.586c-2.788.822-4.662 3.312-4.662 6.19h-3a9.371 9.371 0 0 1 5.11-8.384 9.491 9.491 0 0 1-.792-3.804c0-5.266 4.282-9.548 9.548-9.548s9.548 4.282 9.548 9.548c0 .35-.02.702-.066 1.056a7.07 7.07 0 0 1 5.124 3.578 5.388 5.388 0 0 1 4.466-.04c1.6-1.904 4.088-2.936 6.602-2.65a6.408 6.408 0 0 1 6.284-5.19c3.286 0 6 2.486 6.36 5.676.97.1 1.912.404 2.77.892 2.548-2.098 6.272-2.53 9.21-1.044a6.97 6.97 0 0 1 3.018-1.906c.398-4.748 4.392-8.49 9.24-8.49 5.114 0 9.274 4.16 9.274 9.272 0 1.53-.38 3.012-1.11 4.356a9.36 9.36 0 0 1 2.778 6.678" fill="#2866DC"/><path fill="#2866DC" d="M0 118h110v3H0z"/></g></svg>
